!!!COM: Haydn, Franz Joseph 
!!!OPR: Symphony in D Major 
!!!OTL: Presto 
!!!OMV: 4B 
!!!SCT: H I:31 
!!!SCA: Thematisch-bibliographisches Werkevererzeichnis (A. van Hoboken) 
!!!YOR: Breitkopf & Härtel Edition 
!!!EED: Frances Bennion 
!!!ENC: Frances Bennion 
!!!CDT: 1732/3/31/-1809/5/31/
!!!OCY: Österreich 
!!!YEC: Copyright (c) 1994, 2000 Center for Computer Assisted Research in the Humanities 
!!!YEM: Rights to all derivative editions reserved. 
!!!YEM: Refer to licensing agreement for further details. 
!!!YEN: United States of America 
**kern	**kern	**kern	**kern	**kern	**kern	**kern	**kern	**kern	**kern	**kern	**kern	**kern	**kern
*k[f#c#]	*k[f#c#]	*k[f#c#]	*k[f#c#]	*k[f#c#]	*k[f#c#]	*k[f#c#]	*k[f#c#]	*k[]	*k[]	*k[]	*k[]	*k[f#c#]	*k[f#c#]
*D:	*D:	*D:	*D:	*D:	*D:	*D:	*D:	*D:	*D:	*D:	*D:	*D:	*D:
*clefF	*clefF	*clefC3	*clefF4	*clefF4	*clefF4	*clefF	*clefF	*clefF	*clefF	*clefF	*clefF	*clefF	*clefF
*M3/4	*M3/4	*M3/4	*M3/4	*M3/4	*M3/4	*M3/4	*M3/4	*M3/4	*M3/4	*M3/4	*M3/4	*M3/4	*M3/4
*tb16	*tb16	*tb16	*tb16	*tb16	*tb16	*tb16	*tb16	*tb16	*tb16	*tb16	*tb16	*tb16	*tb16
=0-	=0-	=0-	=0-	=0-	=0-	=0-	=0-	=0-	=0-	=0-	=0-	=0-	=0-
2.r	2.r	2.r	2.r	2.r	2.r	2.r	2.r	2.r	2.r	2.r	2.r	2.r	2.r
=1	=1	=1	=1	=1	=1	=1	=1	=1	=1	=1	=1	=1	=1
2.r	2.r	2.r	2.r	2.r	2.r	2.r	2.r	2.r	2.r	2.r	2.r	2.r	2.r
=2	=2	=2	=2	=2	=2	=2	=2	=2	=2	=2	=2	=2	=2
2.r	2.r	2.r	2.r	2.r	2.r	2.r	2.r	2.r	2.r	2.r	2.r	2.r	2.r
=3	=3	=3	=3	=3	=3	=3	=3	=3	=3	=3	=3	=3	=3
2.r	2.r	2.r	2.r	2.r	2.r	2.r	2.r	2.r	2.r	2.r	2.r	2.r	2.r
=4	=4	=4	=4	=4	=4	=4	=4	=4	=4	=4	=4	=4	=4
2.r	2.r	2.r	2.r	2.r	2.r	2.r	2.r	2.r	2.r	2.r	2.r	2.r	2.r
=5	=5	=5	=5	=5	=5	=5	=5	=5	=5	=5	=5	=5	=5
2.r	2.r	2.r	2.r	2.r	2.r	2.r	2.r	2.r	2.r	2.r	2.r	2.r	2.r
=6	=6	=6	=6	=6	=6	=6	=6	=6	=6	=6	=6	=6	=6
2.r	2.r	2.r	2.r	2.r	2.r	2.r	2.r	2.r	2.r	2.r	2.r	2.r	2.r
=7	=7	=7	=7	=7	=7	=7	=7	=7	=7	=7	=7	=7	=7
2.r	2.r	2.r	2.r	2.r	2.r	2.r	2.r	2.r	2.r	2.r	2.r	2.r	2.r
=8	=8	=8	=8	=8	=8	=8	=8	=8	=8	=8	=8	=8	=8
2.r	2.r	2.r	2.r	2.r	2.r	2.r	2.r	2.r	2.r	2.r	2.r	2.r	2.r
=9	=9	=9	=9	=9	=9	=9	=9	=9	=9	=9	=9	=9	=9
2.r	2.r	2.r	2.r	2.r	2.r	2.r	2.r	2.r	2.r	2.r	2.r	2.r	2.r
=10	=10	=10	=10	=10	=10	=10	=10	=10	=10	=10	=10	=10	=10
2.r	2.r	2.r	2.r	2.r	2.r	2.r	2.r	2.r	2.r	2.r	2.r	2.r	2.r
=11	=11	=11	=11	=11	=11	=11	=11	=11	=11	=11	=11	=11	=11
2.r	2.r	2.r	2.r	2.r	2.r	2.r	2.r	2.r	2.r	2.r	2.r	2.r	2.r
=12	=12	=12	=12	=12	=12	=12	=12	=12	=12	=12	=12	=12	=12
2.r	2.r	2.r	2.r	2.r	2.r	2.r	2.r	2.r	2.r	2.r	2.r	2.r	2.r
=13	=13	=13	=13	=13	=13	=13	=13	=13	=13	=13	=13	=13	=13
2.r	2.r	2.r	2.r	2.r	2.r	2.r	2.r	2.r	2.r	2.r	2.r	2.r	2.r
=14	=14	=14	=14	=14	=14	=14	=14	=14	=14	=14	=14	=14	=14
2.r	2.r	2.r	2.r	2.r	2.r	2.r	2.r	2.r	2.r	2.r	2.r	2.r	2.r
=15	=15	=15	=15	=15	=15	=15	=15	=15	=15	=15	=15	=15	=15
2.r	2.r	2.r	2.r	2.r	2.r	2.r	2.r	2.r	2.r	2.r	2.r	2.r	2.r
=16	=16	=16	=16	=16	=16	=16	=16	=16	=16	=16	=16	=16	=16
2.r	2.r	2.r	2.r	2.r	2.r	2.r	2.r	2.r	2.r	2.r	2.r	2.r	2.r
=17	=17	=17	=17	=17	=17	=17	=17	=17	=17	=17	=17	=17	=17
2.r	2.r	2.r	2.r	2.r	2.r	2.r	2.r	2.r	2.r	2.r	2.r	2.r	2.r
=18	=18	=18	=18	=18	=18	=18	=18	=18	=18	=18	=18	=18	=18
2.r	2.r	2.r	2.r	2.r	2.r	2.r	2.r	2.r	2.r	2.r	2.r	2.r	2.r
=19	=19	=19	=19	=19	=19	=19	=19	=19	=19	=19	=19	=19	=19
2.r	2.r	2.r	2.r	2.r	2.r	2.r	2.r	2.r	2.r	2.r	2.r	2.r	2.r
=20	=20	=20	=20	=20	=20	=20	=20	=20	=20	=20	=20	=20	=20
2.r	2.r	2.r	2.r	2.r	2.r	2.r	2.r	2.r	2.r	2.r	2.r	2.r	2.r
=21	=21	=21	=21	=21	=21	=21	=21	=21	=21	=21	=21	=21	=21
2.r	2.r	2.r	2.r	2.r	2.r	2.r	2.r	2.r	2.r	2.r	2.r	2.r	2.r
=22	=22	=22	=22	=22	=22	=22	=22	=22	=22	=22	=22	=22	=22
2.r	2.r	2.r	2.r	2.r	2.r	2.r	2.r	2.r	2.r	2.r	2.r	2.r	2.r
=23	=23	=23	=23	=23	=23	=23	=23	=23	=23	=23	=23	=23	=23
2.r	2.r	2.r	2.r	2.r	2.r	2.r	2.r	2.r	2.r	2.r	2.r	2.r	2.r
=24	=24	=24	=24	=24	=24	=24	=24	=24	=24	=24	=24	=24	=24
2.r	2.r	2.r	2.r	2.r	2.r	2.r	2.r	2.r	2.r	2.r	2.r	2.r	2.r
=25	=25	=25	=25	=25	=25	=25	=25	=25	=25	=25	=25	=25	=25
2.r	2.r	2.r	2.r	2.r	2.r	2.r	2.r	2.r	2.r	2.r	2.r	2.r	2.r
=26	=26	=26	=26	=26	=26	=26	=26	=26	=26	=26	=26	=26	=26
2.r	2.r	2.r	2.r	2.r	2.r	2.r	2.r	2.r	2.r	2.r	2.r	2.r	2.r
=27	=27	=27	=27	=27	=27	=27	=27	=27	=27	=27	=27	=27	=27
2.r	2.r	2.r	2.r	2.r	2.r	2.r	2.r	2.r	2.r	2.r	2.r	2.r	2.r
=28	=28	=28	=28	=28	=28	=28	=28	=28	=28	=28	=28	=28	=28
2.r	2.r	2.r	2.r	2.r	2.r	2.r	2.r	2.r	2.r	2.r	2.r	2.r	2.r
=29	=29	=29	=29	=29	=29	=29	=29	=29	=29	=29	=29	=29	=29
2.r	2.r	2.r	2.r	2.r	2.r	2.r	2.r	2.r	2.r	2.r	2.r	2.r	2.r
=30	=30	=30	=30	=30	=30	=30	=30	=30	=30	=30	=30	=30	=30
2.r	2.r	2.r	2.r	2.r	2.r	2.r	2.r	2.r	2.r	2.r	2.r	2.r	2.r
=31	=31	=31	=31	=31	=31	=31	=31	=31	=31	=31	=31	=31	=31
2.r	2.r	2.r	2.r	2.r	2.r	2.r	2.r	2.r	2.r	2.r	2.r	2.r	2.r
=32	=32	=32	=32	=32	=32	=32	=32	=32	=32	=32	=32	=32	=32
2.r	2.r	2.r	2.r	2.r	2.r	2.r	2.r	2.r	2.r	2.r	2.r	2.r	2.r
=33	=33	=33	=33	=33	=33	=33	=33	=33	=33	=33	=33	=33	=33
2.r	2.r	2.r	2.r	2.r	2.r	2.r	2.r	2.r	2.r	2.r	2.r	2.r	2.r
=34	=34	=34	=34	=34	=34	=34	=34	=34	=34	=34	=34	=34	=34
2.r	2.r	2.r	2.r	2.r	2.r	2.r	2.r	2.r	2.r	2.r	2.r	2.r	2.r
=35	=35	=35	=35	=35	=35	=35	=35	=35	=35	=35	=35	=35	=35
2.r	2.r	2.r	2.r	2.r	2.r	2.r	2.r	2.r	2.r	2.r	2.r	2.r	2.r
=36	=36	=36	=36	=36	=36	=36	=36	=36	=36	=36	=36	=36	=36
2.r	2.r	2.r	2.r	2.r	2.r	2.r	2.r	2.r	2.r	2.r	2.r	2.r	2.r
=37	=37	=37	=37	=37	=37	=37	=37	=37	=37	=37	=37	=37	=37
2.r	2.r	2.r	2.r	2.r	2.r	2.r	2.r	2.r	2.r	2.r	2.r	2.r	2.r
=38	=38	=38	=38	=38	=38	=38	=38	=38	=38	=38	=38	=38	=38
2.r	2.r	2.r	2.r	2.r	2.r	2.r	2.r	2.r	2.r	2.r	2.r	2.r	2.r
=39	=39	=39	=39	=39	=39	=39	=39	=39	=39	=39	=39	=39	=39
2.r	2.r	2.r	2.r	2.r	2.r	2.r	2.r	2.r	2.r	2.r	2.r	2.r	2.r
=40	=40	=40	=40	=40	=40	=40	=40	=40	=40	=40	=40	=40	=40
2.r	2.r	2.r	2.r	2.r	2.r	2.r	2.r	2.r	2.r	2.r	2.r	2.r	2.r
=41	=41	=41	=41	=41	=41	=41	=41	=41	=41	=41	=41	=41	=41
2.r	2.r	2.r	2.r	2.r	2.r	2.r	2.r	2.r	2.r	2.r	2.r	2.r	2.r
=42	=42	=42	=42	=42	=42	=42	=42	=42	=42	=42	=42	=42	=42
2.r	2.r	2.r	2.r	2.r	2.r	2.r	2.r	2.r	2.r	2.r	2.r	2.r	2.r
=43	=43	=43	=43	=43	=43	=43	=43	=43	=43	=43	=43	=43	=43
2.r	2.r	2.r	2.r	2.r	2.r	2.r	2.r	2.r	2.r	2.r	2.r	2.r	2.r
=44	=44	=44	=44	=44	=44	=44	=44	=44	=44	=44	=44	=44	=44
2.r	2.r	2.r	2.r	2.r	2.r	2.r	2.r	2.r	2.r	2.r	2.r	2.r	2.r
=45	=45	=45	=45	=45	=45	=45	=45	=45	=45	=45	=45	=45	=45
2.r	2.r	2.r	2.r	2.r	2.r	2.r	2.r	2.r	2.r	2.r	2.r	2.r	2.r
=46	=46	=46	=46	=46	=46	=46	=46	=46	=46	=46	=46	=46	=46
2.r	2.r	2.r	2.r	2.r	2.r	2.r	2.r	2.r	2.r	2.r	2.r	2.r	2.r
=47	=47	=47	=47	=47	=47	=47	=47	=47	=47	=47	=47	=47	=47
2.r	2.r	2.r	2.r	2.r	2.r	2.r	2.r	2.r	2.r	2.r	2.r	2.r	2.r
=48	=48	=48	=48	=48	=48	=48	=48	=48	=48	=48	=48	=48	=48
2.r	2.r	2.r	2.r	2.r	2.r	2.r	2.r	2.r	2.r	2.r	2.r	2.r	2.r
=49	=49	=49	=49	=49	=49	=49	=49	=49	=49	=49	=49	=49	=49
2.r	2.r	2.r	2.r	2.r	2.r	2.r	2.r	2.r	2.r	2.r	2.r	2.r	2.r
=50	=50	=50	=50	=50	=50	=50	=50	=50	=50	=50	=50	=50	=50
2.r	2.r	2.r	2.r	2.r	2.r	2.r	2.r	2.r	2.r	2.r	2.r	2.r	2.r
=51	=51	=51	=51	=51	=51	=51	=51	=51	=51	=51	=51	=51	=51
2.r	2.r	2.r	2.r	2.r	2.r	2.r	2.r	2.r	2.r	2.r	2.r	2.r	2.r
=52	=52	=52	=52	=52	=52	=52	=52	=52	=52	=52	=52	=52	=52
2.r	2.r	2.r	2.r	2.r	2.r	2.r	2.r	2.r	2.r	2.r	2.r	2.r	2.r
=53	=53	=53	=53	=53	=53	=53	=53	=53	=53	=53	=53	=53	=53
2.r	2.r	2.r	2.r	2.r	2.r	2.r	2.r	2.r	2.r	2.r	2.r	2.r	2.r
=54	=54	=54	=54	=54	=54	=54	=54	=54	=54	=54	=54	=54	=54
2.r	2.r	2.r	2.r	2.r	2.r	2.r	2.r	2.r	2.r	2.r	2.r	2.r	2.r
=55	=55	=55	=55	=55	=55	=55	=55	=55	=55	=55	=55	=55	=55
2.r	2.r	2.r	2.r	2.r	2.r	2.r	2.r	2.r	2.r	2.r	2.r	2.r	2.r
=56	=56	=56	=56	=56	=56	=56	=56	=56	=56	=56	=56	=56	=56
2.r	2.r	2.r	2.r	2.r	2.r	2.r	2.r	2.r	2.r	2.r	2.r	2.r	2.r
=57	=57	=57	=57	=57	=57	=57	=57	=57	=57	=57	=57	=57	=57
2.r	2.r	2.r	2.r	2.r	2.r	2.r	2.r	2.r	2.r	2.r	2.r	2.r	2.r
=58	=58	=58	=58	=58	=58	=58	=58	=58	=58	=58	=58	=58	=58
2.r	2.r	2.r	2.r	2.r	2.r	2.r	2.r	2.r	2.r	2.r	2.r	2.r	2.r
=59	=59	=59	=59	=59	=59	=59	=59	=59	=59	=59	=59	=59	=59
2.r	2.r	2.r	2.r	2.r	2.r	2.r	2.r	2.r	2.r	2.r	2.r	2.r	2.r
=60	=60	=60	=60	=60	=60	=60	=60	=60	=60	=60	=60	=60	=60
2.r	2.r	2.r	2.r	2.r	2.r	2.r	2.r	2.r	2.r	2.r	2.r	2.r	2.r
=61	=61	=61	=61	=61	=61	=61	=61	=61	=61	=61	=61	=61	=61
2.r	2.r	2.r	2.r	2.r	2.r	2.r	2.r	2.r	2.r	2.r	2.r	2.r	2.r
=62	=62	=62	=62	=62	=62	=62	=62	=62	=62	=62	=62	=62	=62
2.r	2.r	2.r	2.r	2.r	2.r	2.r	2.r	2.r	2.r	2.r	2.r	2.r	2.r
=63	=63	=63	=63	=63	=63	=63	=63	=63	=63	=63	=63	=63	=63
2.r	2.r	2.r	2.r	2.r	2.r	2.r	2.r	2.r	2.r	2.r	2.r	2.r	2.r
=64	=64	=64	=64	=64	=64	=64	=64	=64	=64	=64	=64	=64	=64
2.r	2.r	2.r	2.r	2.r	2.r	2.r	2.r	2.r	2.r	2.r	2.r	2.r	2.r
=65	=65	=65	=65	=65	=65	=65	=65	=65	=65	=65	=65	=65	=65
2.r	2.r	2.r	2.r	2.r	2.r	2.r	2.r	2.r	2.r	2.r	2.r	2.r	2.r
=66	=66	=66	=66	=66	=66	=66	=66	=66	=66	=66	=66	=66	=66
2.r	2.r	2.r	2.r	2.r	2.r	2.r	2.r	2.r	2.r	2.r	2.r	2.r	2.r
=67	=67	=67	=67	=67	=67	=67	=67	=67	=67	=67	=67	=67	=67
2.r	2.r	2.r	2.r	2.r	2.r	2.r	2.r	2.r	2.r	2.r	2.r	2.r	2.r
=68	=68	=68	=68	=68	=68	=68	=68	=68	=68	=68	=68	=68	=68
2.r	2.r	2.r	2.r	2.r	2.r	2.r	2.r	2.r	2.r	2.r	2.r	2.r	2.r
=69	=69	=69	=69	=69	=69	=69	=69	=69	=69	=69	=69	=69	=69
2.r	2.r	2.r	2.r	2.r	2.r	2.r	2.r	2.r	2.r	2.r	2.r	2.r	2.r
=70	=70	=70	=70	=70	=70	=70	=70	=70	=70	=70	=70	=70	=70
2.r	2.r	2.r	2.r	2.r	2.r	2.r	2.r	2.r	2.r	2.r	2.r	2.r	2.r
=71	=71	=71	=71	=71	=71	=71	=71	=71	=71	=71	=71	=71	=71
2.r	2.r	2.r	2.r	2.r	2.r	2.r	2.r	2.r	2.r	2.r	2.r	2.r	2.r
=72	=72	=72	=72	=72	=72	=72	=72	=72	=72	=72	=72	=72	=72
2.r	2.r	2.r	2.r	2.r	2.r	2.r	2.r	2.r	2.r	2.r	2.r	2.r	2.r
=73	=73	=73	=73	=73	=73	=73	=73	=73	=73	=73	=73	=73	=73
2.r	2.r	2.r	2.r	2.r	2.r	2.r	2.r	2.r	2.r	2.r	2.r	2.r	2.r
=74	=74	=74	=74	=74	=74	=74	=74	=74	=74	=74	=74	=74	=74
2.r	2.r	2.r	2.r	2.r	2.r	2.r	2.r	2.r	2.r	2.r	2.r	2.r	2.r
=75	=75	=75	=75	=75	=75	=75	=75	=75	=75	=75	=75	=75	=75
2.r	2.r	2.r	2.r	2.r	2.r	2.r	2.r	2.r	2.r	2.r	2.r	2.r	2.r
=76	=76	=76	=76	=76	=76	=76	=76	=76	=76	=76	=76	=76	=76
2.r	2.r	2.r	2.r	2.r	2.r	2.r	2.r	2.r	2.r	2.r	2.r	2.r	2.r
=77	=77	=77	=77	=77	=77	=77	=77	=77	=77	=77	=77	=77	=77
2.r	2.r	2.r	2.r	2.r	2.r	2.r	2.r	2.r	2.r	2.r	2.r	2.r	2.r
=78	=78	=78	=78	=78	=78	=78	=78	=78	=78	=78	=78	=78	=78
2.r	2.r	2.r	2.r	2.r	2.r	2.r	2.r	2.r	2.r	2.r	2.r	2.r	2.r
=79	=79	=79	=79	=79	=79	=79	=79	=79	=79	=79	=79	=79	=79
2.r	2.r	2.r	2.r	2.r	2.r	2.r	2.r	2.r	2.r	2.r	2.r	2.r	2.r
=80	=80	=80	=80	=80	=80	=80	=80	=80	=80	=80	=80	=80	=80
2.r	2.r	2.r	2.r	2.r	2.r	2.r	2.r	2.r	2.r	2.r	2.r	2.r	2.r
=81	=81	=81	=81	=81	=81	=81	=81	=81	=81	=81	=81	=81	=81
2.r	2.r	2.r	2.r	2.r	2.r	2.r	2.r	2.r	2.r	2.r	2.r	2.r	2.r
=82	=82	=82	=82	=82	=82	=82	=82	=82	=82	=82	=82	=82	=82
2.r	2.r	2.r	2.r	2.r	2.r	2.r	2.r	2.r	2.r	2.r	2.r	2.r	2.r
=83	=83	=83	=83	=83	=83	=83	=83	=83	=83	=83	=83	=83	=83
2.r	2.r	2.r	2.r	2.r	2.r	2.r	2.r	2.r	2.r	2.r	2.r	2.r	2.r
=84	=84	=84	=84	=84	=84	=84	=84	=84	=84	=84	=84	=84	=84
2.r	2.r	2.r	2.r	2.r	2.r	2.r	2.r	2.r	2.r	2.r	2.r	2.r	2.r
=85	=85	=85	=85	=85	=85	=85	=85	=85	=85	=85	=85	=85	=85
2.r	2.r	2.r	2.r	2.r	2.r	2.r	2.r	2.r	2.r	2.r	2.r	2.r	2.r
=86	=86	=86	=86	=86	=86	=86	=86	=86	=86	=86	=86	=86	=86
2.r	2.r	2.r	2.r	2.r	2.r	2.r	2.r	2.r	2.r	2.r	2.r	2.r	2.r
=87	=87	=87	=87	=87	=87	=87	=87	=87	=87	=87	=87	=87	=87
2.r	2.r	2.r	2.r	2.r	2.r	2.r	2.r	2.r	2.r	2.r	2.r	2.r	2.r
=88	=88	=88	=88	=88	=88	=88	=88	=88	=88	=88	=88	=88	=88
2.r	2.r	2.r	2.r	2.r	2.r	2.r	2.r	2.r	2.r	2.r	2.r	2.r	2.r
=89	=89	=89	=89	=89	=89	=89	=89	=89	=89	=89	=89	=89	=89
2.r	2.r	2.r	2.r	2.r	2.r	2.r	2.r	2.r	2.r	2.r	2.r	2.r	2.r
=90	=90	=90	=90	=90	=90	=90	=90	=90	=90	=90	=90	=90	=90
2.r	2.r	2.r	2.r	2.r	2.r	2.r	2.r	2.r	2.r	2.r	2.r	2.r	2.r
=91	=91	=91	=91	=91	=91	=91	=91	=91	=91	=91	=91	=91	=91
2.r	2.r	2.r	2.r	2.r	2.r	2.r	2.r	2.r	2.r	2.r	2.r	2.r	2.r
=92	=92	=92	=92	=92	=92	=92	=92	=92	=92	=92	=92	=92	=92
2.r	2.r	2.r	2.r	2.r	2.r	2.r	2.r	2.r	2.r	2.r	2.r	2.r	2.r
=93	=93	=93	=93	=93	=93	=93	=93	=93	=93	=93	=93	=93	=93
2.r	2.r	2.r	2.r	2.r	2.r	2.r	2.r	2.r	2.r	2.r	2.r	2.r	2.r
=94	=94	=94	=94	=94	=94	=94	=94	=94	=94	=94	=94	=94	=94
2.r	2.r	2.r	2.r	2.r	2.r	2.r	2.r	2.r	2.r	2.r	2.r	2.r	2.r
=95	=95	=95	=95	=95	=95	=95	=95	=95	=95	=95	=95	=95	=95
2.r	2.r	2.r	2.r	2.r	2.r	2.r	2.r	2.r	2.r	2.r	2.r	2.r	2.r
=96	=96	=96	=96	=96	=96	=96	=96	=96	=96	=96	=96	=96	=96
2.r	2.r	2.r	2.r	2.r	2.r	2.r	2.r	2.r	2.r	2.r	2.r	2.r	2.r
=97	=97	=97	=97	=97	=97	=97	=97	=97	=97	=97	=97	=97	=97
2.r	2.r	2.r	2.r	2.r	2.r	2.r	2.r	2.r	2.r	2.r	2.r	2.r	2.r
=98	=98	=98	=98	=98	=98	=98	=98	=98	=98	=98	=98	=98	=98
2.r	2.r	2.r	2.r	2.r	2.r	2.r	2.r	2.r	2.r	2.r	2.r	2.r	2.r
=99	=99	=99	=99	=99	=99	=99	=99	=99	=99	=99	=99	=99	=99
2.r	2.r	2.r	2.r	2.r	2.r	2.r	2.r	2.r	2.r	2.r	2.r	2.r	2.r
=100	=100	=100	=100	=100	=100	=100	=100	=100	=100	=100	=100	=100	=100
2.r	2.r	2.r	2.r	2.r	2.r	2.r	2.r	2.r	2.r	2.r	2.r	2.r	2.r
=101	=101	=101	=101	=101	=101	=101	=101	=101	=101	=101	=101	=101	=101
2.r	2.r	2.r	2.r	2.r	2.r	2.r	2.r	2.r	2.r	2.r	2.r	2.r	2.r
=102	=102	=102	=102	=102	=102	=102	=102	=102	=102	=102	=102	=102	=102
2.r	2.r	2.r	2.r	2.r	2.r	2.r	2.r	2.r	2.r	2.r	2.r	2.r	2.r
=103	=103	=103	=103	=103	=103	=103	=103	=103	=103	=103	=103	=103	=103
2.r	2.r	2.r	2.r	2.r	2.r	2.r	2.r	2.r	2.r	2.r	2.r	2.r	2.r
=104	=104	=104	=104	=104	=104	=104	=104	=104	=104	=104	=104	=104	=104
2.r	2.r	2.r	2.r	2.r	2.r	2.r	2.r	2.r	2.r	2.r	2.r	2.r	2.r
=105	=105	=105	=105	=105	=105	=105	=105	=105	=105	=105	=105	=105	=105
2.r	2.r	2.r	2.r	2.r	2.r	2.r	2.r	2.r	2.r	2.r	2.r	2.r	2.r
=106	=106	=106	=106	=106	=106	=106	=106	=106	=106	=106	=106	=106	=106
2.r	2.r	2.r	2.r	2.r	2.r	2.r	2.r	2.r	2.r	2.r	2.r	2.r	2.r
=107	=107	=107	=107	=107	=107	=107	=107	=107	=107	=107	=107	=107	=107
2.r	2.r	2.r	2.r	2.r	2.r	2.r	2.r	2.r	2.r	2.r	2.r	2.r	2.r
=108	=108	=108	=108	=108	=108	=108	=108	=108	=108	=108	=108	=108	=108
2.r	2.r	2.r	2.r	2.r	2.r	2.r	2.r	2.r	2.r	2.r	2.r	2.r	2.r
=109	=109	=109	=109	=109	=109	=109	=109	=109	=109	=109	=109	=109	=109
2.r	2.r	2.r	2.r	2.r	2.r	2.r	2.r	2.r	2.r	2.r	2.r	2.r	2.r
=110	=110	=110	=110	=110	=110	=110	=110	=110	=110	=110	=110	=110	=110
2.r	2.r	2.r	2.r	2.r	2.r	2.r	2.r	2.r	2.r	2.r	2.r	2.r	2.r
=111	=111	=111	=111	=111	=111	=111	=111	=111	=111	=111	=111	=111	=111
2.r	2.r	2.r	2.r	2.r	2.r	2.r	2.r	2.r	2.r	2.r	2.r	2.r	2.r
=112	=112	=112	=112	=112	=112	=112	=112	=112	=112	=112	=112	=112	=112
2.r	2.r	2.r	2.r	2.r	2.r	2.r	2.r	2.r	2.r	2.r	2.r	2.r	2.r
=113	=113	=113	=113	=113	=113	=113	=113	=113	=113	=113	=113	=113	=113
2.r	2.r	2.r	2.r	2.r	2.r	2.r	2.r	2.r	2.r	2.r	2.r	2.r	2.r
=114	=114	=114	=114	=114	=114	=114	=114	=114	=114	=114	=114	=114	=114
2.r	2.r	2.r	2.r	2.r	2.r	2.r	2.r	2.r	2.r	2.r	2.r	2.r	2.r
=115	=115	=115	=115	=115	=115	=115	=115	=115	=115	=115	=115	=115	=115
2.r	2.r	2.r	2.r	2.r	2.r	2.r	2.r	2.r	2.r	2.r	2.r	2.r	2.r
=116	=116	=116	=116	=116	=116	=116	=116	=116	=116	=116	=116	=116	=116
2.r	2.r	2.r	2.r	2.r	2.r	2.r	2.r	2.r	2.r	2.r	2.r	2.r	2.r
=117	=117	=117	=117	=117	=117	=117	=117	=117	=117	=117	=117	=117	=117
2.r	2.r	2.r	2.r	2.r	2.r	2.r	2.r	2.r	2.r	2.r	2.r	2.r	2.r
=118	=118	=118	=118	=118	=118	=118	=118	=118	=118	=118	=118	=118	=118
2.r	2.r	2.r	2.r	2.r	2.r	2.r	2.r	2.r	2.r	2.r	2.r	2.r	2.r
=119	=119	=119	=119	=119	=119	=119	=119	=119	=119	=119	=119	=119	=119
2.r	2.r	2.r	2.r	2.r	2.r	2.r	2.r	2.r	2.r	2.r	2.r	2.r	2.r
=120	=120	=120	=120	=120	=120	=120	=120	=120	=120	=120	=120	=120	=120
2.r	2.r	2.r	2.r	2.r	2.r	2.r	2.r	2.r	2.r	2.r	2.r	2.r	2.r
=121	=121	=121	=121	=121	=121	=121	=121	=121	=121	=121	=121	=121	=121
2.r	2.r	2.r	2.r	2.r	2.r	2.r	2.r	2.r	2.r	2.r	2.r	2.r	2.r
=122	=122	=122	=122	=122	=122	=122	=122	=122	=122	=122	=122	=122	=122
2.r	2.r	2.r	2.r	2.r	2.r	2.r	2.r	2.r	2.r	2.r	2.r	2.r	2.r
=123	=123	=123	=123	=123	=123	=123	=123	=123	=123	=123	=123	=123	=123
2.r	2.r	2.r	2.r	2.r	2.r	2.r	2.r	2.r	2.r	2.r	2.r	2.r	2.r
=124	=124	=124	=124	=124	=124	=124	=124	=124	=124	=124	=124	=124	=124
2.r	2.r	2.r	2.r	2.r	2.r	2.r	2.r	2.r	2.r	2.r	2.r	2.r	2.r
=125	=125	=125	=125	=125	=125	=125	=125	=125	=125	=125	=125	=125	=125
2.r	2.r	2.r	2.r	2.r	2.r	2.r	2.r	2.r	2.r	2.r	2.r	2.r	2.r
=126	=126	=126	=126	=126	=126	=126	=126	=126	=126	=126	=126	=126	=126
2.r	2.r	2.r	2.r	2.r	2.r	2.r	2.r	2.r	2.r	2.r	2.r	2.r	2.r
=127	=127	=127	=127	=127	=127	=127	=127	=127	=127	=127	=127	=127	=127
2.r	2.r	2.r	2.r	2.r	2.r	2.r	2.r	2.r	2.r	2.r	2.r	2.r	2.r
=128	=128	=128	=128	=128	=128	=128	=128	=128	=128	=128	=128	=128	=128
2.r	2.r	2.r	2.r	2.r	2.r	2.r	2.r	2.r	2.r	2.r	2.r	2.r	2.r
=129	=129	=129	=129	=129	=129	=129	=129	=129	=129	=129	=129	=129	=129
2.r	2.r	2.r	2.r	2.r	2.r	2.r	2.r	2.r	2.r	2.r	2.r	2.r	2.r
=130	=130	=130	=130	=130	=130	=130	=130	=130	=130	=130	=130	=130	=130
2.r	2.r	2.r	2.r	2.r	2.r	2.r	2.r	2.r	2.r	2.r	2.r	2.r	2.r
=131	=131	=131	=131	=131	=131	=131	=131	=131	=131	=131	=131	=131	=131
2.r	2.r	2.r	2.r	2.r	2.r	2.r	2.r	2.r	2.r	2.r	2.r	2.r	2.r
=132	=132	=132	=132	=132	=132	=132	=132	=132	=132	=132	=132	=132	=132
2.r	2.r	2.r	2.r	2.r	2.r	2.r	2.r	2.r	2.r	2.r	2.r	2.r	2.r
=133	=133	=133	=133	=133	=133	=133	=133	=133	=133	=133	=133	=133	=133
2.r	2.r	2.r	2.r	2.r	2.r	2.r	2.r	2.r	2.r	2.r	2.r	2.r	2.r
=134	=134	=134	=134	=134	=134	=134	=134	=134	=134	=134	=134	=134	=134
2.r	2.r	2.r	2.r	2.r	2.r	2.r	2.r	2.r	2.r	2.r	2.r	2.r	2.r
=135	=135	=135	=135	=135	=135	=135	=135	=135	=135	=135	=135	=135	=135
2.r	2.r	2.r	2.r	2.r	2.r	2.r	2.r	2.r	2.r	2.r	2.r	2.r	2.r
=136	=136	=136	=136	=136	=136	=136	=136	=136	=136	=136	=136	=136	=136
2.r	2.r	2.r	2.r	2.r	2.r	2.r	2.r	2.r	2.r	2.r	2.r	2.r	2.r
=137	=137	=137	=137	=137	=137	=137	=137	=137	=137	=137	=137	=137	=137
4d	4d	4d	4D	4D	4D	4d	4d	4cc	4c	4cc	4c	4d	4d
16aa	16aa	2r	2r	2r	2r	2r	2r	2r	2r	2r	2r	16aa	16aa
16gg	16gg	.	.	.	.	.	.	.	.	.	.	16gg	16gg
16ff#	16ff#	.	.	.	.	.	.	.	.	.	.	16ff#	16ff#
16ee	16ee	.	.	.	.	.	.	.	.	.	.	16ee	16ee
16ff#	16ff#	.	.	.	.	.	.	.	.	.	.	16ff#	16ff#
16ee	16ee	.	.	.	.	.	.	.	.	.	.	16ee	16ee
16dd	16dd	.	.	.	.	.	.	.	.	.	.	16dd	16dd
16cc#	16cc#	.	.	.	.	.	.	.	.	.	.	16cc#	16cc#
=138	=138	=138	=138	=138	=138	=138	=138	=138	=138	=138	=138	=138	=138
4dd	4dd	4r	4r	4r	4r	4r	4r	4r	4r	4r	4r	4dd	4dd
4d	4d	4d	4D	4D	4D	4d	4d	4cc	4c	4cc	4c	4d	4d
4f#	4f#	4f#	4F#	4F#	4F#	4f#	4f#	4ee	4e	4ee	4e	4f#	4f#
=139	=139	=139	=139	=139	=139	=139	=139	=139	=139	=139	=139	=139	=139
4b	4B	4B	4BB	4BB	4BB	4b	4b	4cc	4c	4cc	4c	4B	4B
16ff#	16ff#	2r	2r	2r	2r	2r	2r	2r	2r	2r	2r	16ff#	16ff#
16ee	16ee	.	.	.	.	.	.	.	.	.	.	16ee	16ee
16dd	16dd	.	.	.	.	.	.	.	.	.	.	16dd	16dd
16cc#	16cc#	.	.	.	.	.	.	.	.	.	.	16cc#	16cc#
16dd	16dd	.	.	.	.	.	.	.	.	.	.	16dd	16dd
16cc#	16cc#	.	.	.	.	.	.	.	.	.	.	16cc#	16cc#
16b	16b	.	.	.	.	.	.	.	.	.	.	16b	16b
16a#	16a#	.	.	.	.	.	.	.	.	.	.	16a#	16a#
=140	=140	=140	=140	=140	=140	=140	=140	=140	=140	=140	=140	=140	=140
4b	4b	4r	4r	4r	4r	4r	4r	2.r	2.r	2.r	2.r	4b	4b
4g	4G	4G	4GG	4GG	4GG	4g	4g	.	.	.	.	4G	4G
16b	16b	4r	4r	4r	4r	4r	4r	.	.	.	.	16b	16b
16a	16a	.	.	.	.	.	.	.	.	.	.	16a	16a
16g	16g	.	.	.	.	.	.	.	.	.	.	16g	16g
16f#	16f#	.	.	.	.	.	.	.	.	.	.	16f#	16f#
=141	=141	=141	=141	=141	=141	=141	=141	=141	=141	=141	=141	=141	=141
4g	4g	4r	4r	4r	4r	4r	4r	2.r	2.r	2.r	2.r	4g	4g
4e	4e	4e	4E	4E	4E	4e	4e	.	.	.	.	4e	4e
16bb	16bb	4r	4r	4r	4r	4r	4r	.	.	.	.	16bb	16bb
16aa	16aa	.	.	.	.	.	.	.	.	.	.	16aa	16aa
16gg	16gg	.	.	.	.	.	.	.	.	.	.	16gg	16gg
16ff#	16ff#	.	.	.	.	.	.	.	.	.	.	16ff#	16ff#
=142	=142	=142	=142	=142	=142	=142	=142	=142	=142	=142	=142	=142	=142
16gg	16gg	2.r	2.r	2.r	2.r	2.r	2.r	2.r	2.r	2.r	2.r	16gg	16gg
16ff#	16ff#	.	.	.	.	.	.	.	.	.	.	16ff#	16ff#
16ee	16ee	.	.	.	.	.	.	.	.	.	.	16ee	16ee
16dd#	16dd#	.	.	.	.	.	.	.	.	.	.	16dd#	16dd#
16ee	16ee	.	.	.	.	.	.	.	.	.	.	16ee	16ee
16dd	16dd	.	.	.	.	.	.	.	.	.	.	16dd	16dd
16cc#	16cc#	.	.	.	.	.	.	.	.	.	.	16cc#	16cc#
16b	16b	.	.	.	.	.	.	.	.	.	.	16b	16b
16cc#	16cc#	.	.	.	.	.	.	.	.	.	.	16cc#	16cc#
16b	16b	.	.	.	.	.	.	.	.	.	.	16b	16b
16a	16a	.	.	.	.	.	.	.	.	.	.	16a	16a
16g#	16g#	.	.	.	.	.	.	.	.	.	.	16g#	16g#
=143	=143	=143	=143	=143	=143	=143	=143	=143	=143	=143	=143	=143	=143
4a	4a	4r	4r	4r	4r	4r	4r	2.r	2.r	2.r	2.r	4a	4a
4a	4A	4A	4AA	4AA	4AA	4a	4a	.	.	.	.	4A	4A
4cc#	4c#	4c#	4C#	4C#	4C#	4cc#	4cc#	.	.	.	.	4c#	4c#
=144	=144	=144	=144	=144	=144	=144	=144	=144	=144	=144	=144	=144	=144
4ee	4e	4e	4E	4E	4E	4ee	4ee	2.r	2.r	2.r	2.r	4e	4e
16gg	16gg	2r	2r	2r	2r	2r	2r	.	.	.	.	16gg	16gg
16ff#	16ff#	.	.	.	.	.	.	.	.	.	.	16ff#	16ff#
16ee	16ee	.	.	.	.	.	.	.	.	.	.	16ee	16ee
16dd	16dd	.	.	.	.	.	.	.	.	.	.	16dd	16dd
16cc#	16cc#	.	.	.	.	.	.	.	.	.	.	16cc#	16cc#
16b	16b	.	.	.	.	.	.	.	.	.	.	16b	16b
16a	16a	.	.	.	.	.	.	.	.	.	.	16a	16a
16g	16g	.	.	.	.	.	.	.	.	.	.	16g	16g
=145	=145	=145	=145	=145	=145	=145	=145	=145	=145	=145	=145	=145	=145
4f#	4f#	4r	4r	4r	4r	4r	4r	4r	4r	4r	4r	4f#	4f#
4d	4d	4d	4D	4D	4D	4d	4d	4cc	4c	4cc	4c	4d	4d
4f#	4f#	4f#	4F#	4F#	4F#	4f#	4f#	4ee	4e	4ee	4e	4f#	4f#
=146	=146	=146	=146	=146	=146	=146	=146	=146	=146	=146	=146	=146	=146
4a	4a	4a	4A	4A	4A	4a	4a	4gg	4g	4gg	4g	4a	4a
16aa	16aa	2r	2r	2r	2r	2r	2r	2r	2r	2r	2r	16aa	16aa
16gg	16gg	.	.	.	.	.	.	.	.	.	.	16gg	16gg
16ff#	16ff#	.	.	.	.	.	.	.	.	.	.	16ff#	16ff#
16ee	16ee	.	.	.	.	.	.	.	.	.	.	16ee	16ee
16ff#	16ff#	.	.	.	.	.	.	.	.	.	.	16ff#	16ff#
16ee	16ee	.	.	.	.	.	.	.	.	.	.	16ee	16ee
16dd	16dd	.	.	.	.	.	.	.	.	.	.	16dd	16dd
16cc#	16cc#	.	.	.	.	.	.	.	.	.	.	16cc#	16cc#
=147	=147	=147	=147	=147	=147	=147	=147	=147	=147	=147	=147	=147	=147
4dd	4dd	4r	4r	4r	4r	4r	4r	2.r	2.r	2.r	2.r	4dd	4dd
4d	4d	4d	4D	4D	4D	4d	4d	.	.	.	.	4d	4d
4e	4e	4e	4E	4E	4E	4e	4e	.	.	.	.	4e	4e
=148	=148	=148	=148	=148	=148	=148	=148	=148	=148	=148	=148	=148	=148
4f	4f	4f	4F	4F	4F	4f	4f	2.r	2.r	2.r	2.r	4f	4f
16aa	16aa	2r	2r	2r	2r	2r	2r	.	.	.	.	16aa	16aa
16gg	16gg	.	.	.	.	.	.	.	.	.	.	16gg	16gg
16ff	16ff	.	.	.	.	.	.	.	.	.	.	16ff	16ff
16ee	16ee	.	.	.	.	.	.	.	.	.	.	16ee	16ee
16ff	16ff	.	.	.	.	.	.	.	.	.	.	16ff	16ff
16ee	16ee	.	.	.	.	.	.	.	.	.	.	16ee	16ee
16dd	16dd	.	.	.	.	.	.	.	.	.	.	16dd	16dd
16cc#	16cc#	.	.	.	.	.	.	.	.	.	.	16cc#	16cc#
=149	=149	=149	=149	=149	=149	=149	=149	=149	=149	=149	=149	=149	=149
4dd	4dd	4r	4r	4r	4r	4r	4r	2.r	2.r	2.r	2.r	4dd	4dd
4b-	4B-	4B-	4BB-	4BB-	4BB-	4b-	4b-	.	.	.	.	4B-	4B-
16ff	16ff	4r	4r	4r	4r	4r	4r	.	.	.	.	16ff	16ff
16ee	16ee	.	.	.	.	.	.	.	.	.	.	16ee	16ee
16dd	16dd	.	.	.	.	.	.	.	.	.	.	16dd	16dd
16cc#	16cc#	.	.	.	.	.	.	.	.	.	.	16cc#	16cc#
=150	=150	=150	=150	=150	=150	=150	=150	=150	=150	=150	=150	=150	=150
4dd	4dd	4r	4r	4r	4r	4r	4r	2.r	2.r	2.r	2.r	4dd	4dd
4a	4A	4A	4AA	4AA	4AA	4a	4a	.	.	.	.	4A	4A
16ff	16ff	4r	4r	4r	4r	4r	4r	.	.	.	.	16ff	16ff
16ee	16ee	.	.	.	.	.	.	.	.	.	.	16ee	16ee
16dd	16dd	.	.	.	.	.	.	.	.	.	.	16dd	16dd
16cc#	16cc#	.	.	.	.	.	.	.	.	.	.	16cc#	16cc#
=151	=151	=151	=151	=151	=151	=151	=151	=151	=151	=151	=151	=151	=151
4dd	4dd	4r	4r	4r	4r	4r	4r	2.r	2.r	2.r	2.r	4dd	4dd
4d	4d	4d	4D	4D	4D	4d	4d	.	.	.	.	4d	4d
4g#	4g#	4g#	4G#	4G#	4G#	4g#	4g#	.	.	.	.	4g#	4g#
=152	=152	=152	=152	=152	=152	=152	=152	=152	=152	=152	=152	=152	=152
4a	4a	4a	4A	4A	4A	4a	4a	4gg	4g	2.r	2.r	16a	16a
.	.	.	.	.	.	.	.	.	.	.	.	16aa	16aa
.	.	.	.	.	.	.	.	.	.	.	.	16aa	16aa
.	.	.	.	.	.	.	.	.	.	.	.	16aa	16aa
2r	2r	2r	2r	2r	2r	2r	2r	4gg	4g	.	.	16aa	16aa
.	.	.	.	.	.	.	.	.	.	.	.	16aa	16aa
.	.	.	.	.	.	.	.	.	.	.	.	16aa	16aa
.	.	.	.	.	.	.	.	.	.	.	.	16aa	16aa
.	.	.	.	.	.	.	.	4gg	4g	.	.	16aa	16aa
.	.	.	.	.	.	.	.	.	.	.	.	16aa	16aa
.	.	.	.	.	.	.	.	.	.	.	.	16aa	16aa
.	.	.	.	.	.	.	.	.	.	.	.	16aa	16aa
=153	=153	=153	=153	=153	=153	=153	=153	=153	=153	=153	=153	=153	=153
2r	2r	2r	2.r	2.r	2.r	2r	2r	[2.gg	[2.g	2r	2r	16aa	16aa
.	.	.	.	.	.	.	.	.	.	.	.	16aa	16aa
.	.	.	.	.	.	.	.	.	.	.	.	16aa	16aa
.	.	.	.	.	.	.	.	.	.	.	.	16aa	16aa
.	.	.	.	.	.	.	.	.	.	.	.	16aa	16aa
.	.	.	.	.	.	.	.	.	.	.	.	16aa	16aa
.	.	.	.	.	.	.	.	.	.	.	.	16aa	16aa
.	.	.	.	.	.	.	.	.	.	.	.	16aa	16aa
8dd	8f#	8d	.	.	.	8f#	8d	.	.	8ee	8cc	16aa	16aa
.	.	.	.	.	.	.	.	.	.	.	.	16aa	16aa
8ee	8g	8e	.	.	.	8g	8e	.	.	8ff	8dd	16aa	16aa
.	.	.	.	.	.	.	.	.	.	.	.	16aa	16aa
=154	=154	=154	=154	=154	=154	=154	=154	=154	=154	=154	=154	=154	=154
8.ff#	8.a	8.f#	4D	4D	4D	8.a	8.f#	2.gg_	2.g_	8.gg	8.ee	16aa	16aa
.	.	.	.	.	.	.	.	.	.	.	.	16aa	16aa
.	.	.	.	.	.	.	.	.	.	.	.	16aa	16aa
16gg	16b	16g	.	.	.	16b	16g	.	.	16aa	16ff	16aa	16aa
4ff#	4a	4f#	2r	2r	2r	4a	4f#	.	.	4gg	4ee	16aa	16aa
.	.	.	.	.	.	.	.	.	.	.	.	16aa	16aa
.	.	.	.	.	.	.	.	.	.	.	.	16aa	16aa
.	.	.	.	.	.	.	.	.	.	.	.	16aa	16aa
8cc#	8e	8c#	.	.	.	8e	8c#	.	.	8dd	8g	16aa	16aa
.	.	.	.	.	.	.	.	.	.	.	.	16aa	16aa
8dd	8f#	8d	.	.	.	8f#	8d	.	.	8ee	8cc	16aa	16aa
.	.	.	.	.	.	.	.	.	.	.	.	16aa	16aa
=155	=155	=155	=155	=155	=155	=155	=155	=155	=155	=155	=155	=155	=155
8.ee	8.g	8.e	4A	4A	4A	8.g	8.e	2.gg_	2.g_	8.ff	8.dd	16aa	16aa
.	.	.	.	.	.	.	.	.	.	.	.	16aa	16aa
.	.	.	.	.	.	.	.	.	.	.	.	16aa	16aa
16ff#	16a	16f#	.	.	.	16a	16f#	.	.	16gg	16ee	16aa	16aa
4ee	4g	4e	2r	2r	2r	4g	4e	.	.	4ff	4dd	16aa	16aa
.	.	.	.	.	.	.	.	.	.	.	.	16aa	16aa
.	.	.	.	.	.	.	.	.	.	.	.	16aa	16aa
.	.	.	.	.	.	.	.	.	.	.	.	16aa	16aa
8dd	8f#	8d	.	.	.	8f#	8d	.	.	8ee	8cc	16aa	16aa
.	.	.	.	.	.	.	.	.	.	.	.	16aa	16aa
8ee	8g	8e	.	.	.	8g	8e	.	.	8ff	8dd	16aa	16aa
.	.	.	.	.	.	.	.	.	.	.	.	16aa	16aa
=156	=156	=156	=156	=156	=156	=156	=156	=156	=156	=156	=156	=156	=156
8.ff#	8.a	8.f#	4D	4D	4D	8.a	8.f#	2.gg_	2.g_	8.gg	8.ee	16aa	16aa
.	.	.	.	.	.	.	.	.	.	.	.	16aa	16aa
.	.	.	.	.	.	.	.	.	.	.	.	16aa	16aa
16gg	16b	16g	.	.	.	16b	16g	.	.	16aa	16ff	16aa	16aa
4ff#	4a	4f#	2r	2r	2r	4a	4f#	.	.	4gg	4ee	16aa	16aa
.	.	.	.	.	.	.	.	.	.	.	.	16aa	16aa
.	.	.	.	.	.	.	.	.	.	.	.	16aa	16aa
.	.	.	.	.	.	.	.	.	.	.	.	16aa	16aa
8cc#	8e	8c#	.	.	.	8e	8c#	.	.	8dd	8g	16aa	16aa
.	.	.	.	.	.	.	.	.	.	.	.	16aa	16aa
8dd	8f#	8d	.	.	.	8f#	8d	.	.	8ee	8cc	16aa	16aa
.	.	.	.	.	.	.	.	.	.	.	.	16aa	16aa
=157	=157	=157	=157	=157	=157	=157	=157	=157	=157	=157	=157	=157	=157
8.ee	8.g	8.e	4A	4A	4A	8.g	8.e	2.gg]	2g]	8.ff	8.dd	16aa	16aa
.	.	.	.	.	.	.	.	.	.	.	.	16aa	16aa
.	.	.	.	.	.	.	.	.	.	.	.	16aa	16aa
16ff#	16a	16f#	.	.	.	16a	16f#	.	.	16gg	16ee	16aa	16aa
4ee	4g	4e	4r	4r	4r	4g	4e	.	.	4ff	4dd	16aa	16aa
.	.	.	.	.	.	.	.	.	.	.	.	16aa	16aa
.	.	.	.	.	.	.	.	.	.	.	.	16aa	16aa
.	.	.	.	.	.	.	.	.	.	.	.	16aa	16aa
8dd	8f#	4d	4D	4D	4D	8f#	8d	.	8cc	8ee	8cc	8aa	8aa
8ddd	8dd	.	.	.	.	8dd	8dd	.	8ee	8gg	8ee	8ddd	8ddd
=158	=158	=158	=158	=158	=158	=158	=158	=158	=158	=158	=158	=158	=158
8bb	8b	4g	4G	4G	4G	8b	8b	4ff	4dd	4ff	4dd	8bb	8bb
8gg	8gg	.	.	.	.	8gg	8gg	.	.	.	.	8gg	8gg
8ff#	8ff#	4a	4A	4A	4A	8ff#	8ff#	4ee	4cc	4ee	4cc	8ff#	8ff#
8dd	8dd	.	.	.	.	8dd	8dd	.	.	.	.	8dd	8dd
8a	8a	4A	4AA	4AA	4AA	8a	8a	4dd	4g	4dd	4g	8a	8a
8cc#	8cc#	.	.	.	.	8cc#	8cc#	.	.	.	.	8cc#	8cc#
=159	=159	=159	=159	=159	=159	=159	=159	=159	=159	=159	=159	=159	=159
8dd	4dd	4d	4D	4D	4D	4dd	4dd	4cc	4e	4cc	4e	16dd	16dd
.	.	.	.	.	.	.	.	.	.	.	.	16a	16a
8aa	.	.	.	.	.	.	.	.	.	.	.	16a	16a
.	.	.	.	.	.	.	.	.	.	.	.	16a	16a
8aa	4r	4r	2r	2r	2r	4r	4r	4r	4r	2r	2r	16a	16a
.	.	.	.	.	.	.	.	.	.	.	.	16a	16a
8aa	.	.	.	.	.	.	.	.	.	.	.	16a	16a
.	.	.	.	.	.	.	.	.	.	.	.	16a	16a
8aa	8f#	8d	.	.	.	8ff#	8dd	8ee	8cc	.	.	16a	16a
.	.	.	.	.	.	.	.	.	.	.	.	16a	16a
8aa	8g	8e	.	.	.	8gg	8ee	8ff	8dd	.	.	16a	16a
.	.	.	.	.	.	.	.	.	.	.	.	16a	16a
=160	=160	=160	=160	=160	=160	=160	=160	=160	=160	=160	=160	=160	=160
[2.aa	8.a	8.f#	4D	4D	4D	8.aa	8.ff#	8.gg	8.ee	[2.gg	[2.g	16a	16a
.	.	.	.	.	.	.	.	.	.	.	.	16a	16a
.	.	.	.	.	.	.	.	.	.	.	.	16a	16a
.	16b	16g	.	.	.	16bb	16gg	16aa	16ff	.	.	16a	16a
.	4a	4f#	2r	2r	2r	4aa	4ff#	4gg	4ee	.	.	16a	16a
.	.	.	.	.	.	.	.	.	.	.	.	16a	16a
.	.	.	.	.	.	.	.	.	.	.	.	16a	16a
.	.	.	.	.	.	.	.	.	.	.	.	16a	16a
.	8e	8c#	.	.	.	8ee	8cc#	8dd	8g	.	.	16a	16a
.	.	.	.	.	.	.	.	.	.	.	.	16a	16a
.	8f#	8d	.	.	.	8ff#	8dd	8ee	8cc	.	.	16a	16a
.	.	.	.	.	.	.	.	.	.	.	.	16a	16a
=161	=161	=161	=161	=161	=161	=161	=161	=161	=161	=161	=161	=161	=161
2.aa_	8.g	8.e	4A	4A	4A	8.gg	8.ee	8.ff	8.dd	2.gg_	2.g_	16a	16a
.	.	.	.	.	.	.	.	.	.	.	.	16a	16a
.	.	.	.	.	.	.	.	.	.	.	.	16a	16a
.	16a	16f#	.	.	.	16aa	16ff#	16gg	16ee	.	.	16a	16a
.	4g	4e	2r	2r	2r	4gg	4ee	4ff	4dd	.	.	16a	16a
.	.	.	.	.	.	.	.	.	.	.	.	16a	16a
.	.	.	.	.	.	.	.	.	.	.	.	16a	16a
.	.	.	.	.	.	.	.	.	.	.	.	16a	16a
.	8f#	8d	.	.	.	8ff#	8dd	8ee	8cc	.	.	16a	16a
.	.	.	.	.	.	.	.	.	.	.	.	16a	16a
.	8g	8e	.	.	.	8gg	8ee	8ff	8dd	.	.	16a	16a
.	.	.	.	.	.	.	.	.	.	.	.	16a	16a
=162	=162	=162	=162	=162	=162	=162	=162	=162	=162	=162	=162	=162	=162
2.aa_	8.a	8.f#	4D	4D	4D	8.aa	8.ff#	8.gg	8.ee	2.gg_	2.g_	16a	16a
.	.	.	.	.	.	.	.	.	.	.	.	16a	16a
.	.	.	.	.	.	.	.	.	.	.	.	16a	16a
.	16b	16g	.	.	.	16bb	16gg	16aa	16ff	.	.	16a	16a
.	4a	4f#	2r	2r	2r	4aa	4ff#	4gg	4ee	.	.	16a	16a
.	.	.	.	.	.	.	.	.	.	.	.	16a	16a
.	.	.	.	.	.	.	.	.	.	.	.	16a	16a
.	.	.	.	.	.	.	.	.	.	.	.	16a	16a
.	8e	8c#	.	.	.	8ee	8cc#	8dd	8g	.	.	16a	16a
.	.	.	.	.	.	.	.	.	.	.	.	16a	16a
.	8f#	8d	.	.	.	8ff#	8dd	8ee	8cc	.	.	16a	16a
.	.	.	.	.	.	.	.	.	.	.	.	16a	16a
=163	=163	=163	=163	=163	=163	=163	=163	=163	=163	=163	=163	=163	=163
2aa]	8.g	8.e	4A	4A	4A	8.gg	8.ee	8.ff	8.dd	2.gg]	2g]	16a	16a
.	.	.	.	.	.	.	.	.	.	.	.	16a	16a
.	.	.	.	.	.	.	.	.	.	.	.	16a	16a
.	16a	16f#	.	.	.	16aa	16ff#	16gg	16ee	.	.	16a	16a
.	4g	4e	4r	4r	4r	4gg	4ee	4ff	4dd	.	.	16a	16a
.	.	.	.	.	.	.	.	.	.	.	.	16a	16a
.	.	.	.	.	.	.	.	.	.	.	.	16a	16a
.	.	.	.	.	.	.	.	.	.	.	.	16a	16a
4ddd	8f#	4d	4D	4D	4D	8ff#	8dd	8ee	8cc	.	8cc	8a	8a
.	8dd	.	.	.	.	8ddd	8ddd	8gg	8ee	.	8ee	8dd	8dd
=164	=164	=164	=164	=164	=164	=164	=164	=164	=164	=164	=164	=164	=164
8bb	8b	4g	4G	4G	4G	8bb	8bb	4ff	4dd	4ff	4dd	8b	8b
8gg	8gg	.	.	.	.	8gg	8gg	.	.	.	.	8gg	8gg
8ff#	8ff#	4a	4A	4A	4A	8ff#	8ff#	4ee	4cc	4ee	4cc	8ff#	8ff#
8dd	8dd	.	.	.	.	8dd	8dd	.	.	.	.	8dd	8dd
8e	8e	4A	4AA	4AA	4AA	8e	8e	4dd	4g	4dd	4g	8e	8e
8cc#	8cc#	.	.	.	.	8cc#	8cc#	.	.	.	.	8cc#	8cc#
=165	=165	=165	=165	=165	=165	=165	=165	=165	=165	=165	=165	=165	=165
4d	4d	4d	4D	4D	4D	4d	4d	4cc	4e	4cc	4e	4d	4d
4aa	4ff#	2r	2r	2r	2r	4aa	4ff#	8r	8r	8r	8r	4aa	4aa
.	.	.	.	.	.	.	.	16cc	16cc	16cc	16cc	.	.
.	.	.	.	.	.	.	.	16cc	16cc	16cc	16cc	.	.
8ff#	8dd	.	.	.	.	8ff#	8dd	8cc	8cc	8cc	8cc	8ff#	8ff#
8r	8r	.	.	.	.	8r	8r	8cc	8cc	8cc	8cc	8r	8r
=166	=166	=166	=166	=166	=166	=166	=166	=166	=166	=166	=166	=166	=166
4r	4r	4d	4D	4D	4D	4r	4r	4cc	4cc	4cc	4cc	4r	4r
4ff#	4dd	2r	2r	2r	2r	4ff#	4dd	8r	8r	8r	8r	4ff#	4ff#
.	.	.	.	.	.	.	.	16cc	16cc	16cc	16cc	.	.
.	.	.	.	.	.	.	.	16cc	16cc	16cc	16cc	.	.
8dd	8f#	.	.	.	.	8dd	8f#	8cc	8cc	8cc	8cc	8dd	8dd
8r	8r	.	.	.	.	8r	8r	8cc	8cc	8cc	8cc	8r	8r
=167	=167	=167	=167	=167	=167	=167	=167	=167	=167	=167	=167	=167	=167
4r	4r	4d	4D	4D	4D	4r	4r	4ee	4ee	4ee	4ee	4r	4r
4dd	4a	2r	2r	2r	2r	4dd	4a	8r	8r	8r	8r	4dd	4dd
.	.	.	.	.	.	.	.	16ee	16ee	16ee	16ee	.	.
.	.	.	.	.	.	.	.	16ee	16ee	16ee	16ee	.	.
4a	4f#	.	.	.	.	4a	4f#	8ee	8ee	8ee	8ee	4a	4a
.	.	.	.	.	.	.	.	8ee	8ee	8ee	8ee	.	.
=168	=168	=168	=168	=168	=168	=168	=168	=168	=168	=168	=168	=168	=168
4f#	4d	4d	4D	4D	4D	4f#	4d	8gg	8cc	8ee	4cc	4f#	4f#
.	.	.	.	.	.	.	.	16gg	16cc	16ee	.	.	.
.	.	.	.	.	.	.	.	16gg	16cc	16ee	.	.	.
2r	2r	2r	2r	2r	2r	2r	2r	8gg	8cc	8ee	8c	2r	2r
.	.	.	.	.	.	.	.	8gg	8cc	8ee	8c	.	.
.	.	.	.	.	.	.	.	8gg	8cc	8ee	8c	.	.
.	.	.	.	.	.	.	.	8gg	8cc	8ee	8c	.	.
=169	=169	=169	=169	=169	=169	=169	=169	=169	=169	=169	=169	=169	=169
4ddd	4ff# 4d 4a	4d	4D	4D	4D	4dd	4f#	8ee	8g	8cc	8c	4ff# 4a 4d	4ff# 4a 4d
.	.	.	.	.	.	.	.	16ee	16g	16cc	16c	.	.
.	.	.	.	.	.	.	.	16ee	16g	16cc	16c	.	.
2r	2r	2r	2r	2r	2r	2r	2r	8ee	8g	8cc	8c	2r	2r
.	.	.	.	.	.	.	.	8ee	8g	8cc	8c	.	.
.	.	.	.	.	.	.	.	8ee	8g	8cc	8c	.	.
.	.	.	.	.	.	.	.	8ee	8g	8cc	8c	.	.
=170	=170	=170	=170	=170	=170	=170	=170	=170	=170	=170	=170	=170	=170
4ddd	4ff# 4d 4a	4d	4D	4D	4D	4dd	4f#	8cc	8c	8ee	8c	4ff# 4d 4a	4ff# 4d 4a
.	.	.	.	.	.	.	.	16cc	16c	16ee	16c	.	.
.	.	.	.	.	.	.	.	16cc	16c	16ee	16c	.	.
4ddd	4ff# 4a 4d	4d	4D	4D	4D	4dd	4f#	8cc	8c	8ee	8c	4ff# 4a 4d	4ff# 4a 4d
.	.	.	.	.	.	.	.	8cc	8c	8ee	8c	.	.
4ddd	4ff# 4a 4d	4d	4D	4D	4D	4dd	4f#	8cc	8c	8ee	8c	4ff# 4a 4d	4ff# 4a 4d
.	.	.	.	.	.	.	.	8cc	8c	8ee	8c	.	.
=171	=171	=171	=171	=171	=171	=171	=171	=171	=171	=171	=171	=171	=171
4ddd	4ff# 4a 4d	4d	4D	4D	4D	4dd	4f#	4cc	4c	4ee	4c	4ff# 4a 4d	4ff# 4a 4d
2r	2r	2r	2r	2r	2r	2r	2r	2r	2r	2r	2r	2r	2r
==	==	==	==	==	==	==	==	==	==	==	==	==	==
*-	*-	*-	*-	*-	*-	*-	*-	*-	*-	*-	*-	*-	*-
!!!RWG1: This file contains only pitch and duration data.
!!!RWG2: Transposing instruments are not transposed.
!!!RWG3: Spines may have incompatible meters.
!!!RWG4: Durations of rests and tied notes may be interpreted.
!!!RWG: Key is interpreted using the Humdrum key tool.
!!!OPT: Hornsignal 
!!!AFT: stage1 
!!!END: 2000/12/13
!!format changes:
!!content changes:
!!public access: complete
!!!KEY: 64639927
!!!EMD: Converted from MuseData to Humdrum Dec 16, 2000, by Andreas Kornstaedt using muse2kern.
